Newaita/actions/32/object-ungroup.svg

<svg height="32" viewBox="0 0 32 32" width="32" xmlns="http://www.w3.org/2000/svg"><g fill="#424242"><path d="m8.601562 17.449219c-.367187 0-.664062.296875-.664062.660156v5.292969c0 .367187.296875.664062.664062.664062h5.289063c.367187 0 .664063-.296875.664063-.664062v-5.292969c0-.363281-.296876-.660156-.664063-.660156zm1.058594 1.324219h3.171875c.222657 0 .398438.175781.398438.394531v3.175781c0 .222656-.175781.398438-.398438.398438h-3.171875c-.222656 0-.398437-.175782-.398437-.398438v-3.175781c0-.21875.175781-.394531.398437-.394531zm0 0"/><path d="m5.292969 2.894531c-1.464844 0-2.648438 1.183594-2.648438 2.648438v5.292969h2.648438v-3.96875c0-.734376.589843-1.324219 1.320312-1.324219h3.972657v-2.648438zm15.875 0v2.648438h3.96875c.734375 0 1.324219.589843 1.324219 1.324219v3.96875h2.644531v-5.292969c0-1.464844-1.179688-2.648438-2.644531-2.648438zm-18.523438 18.523438v5.292969c0 1.464843 1.183594 2.644531 2.648438 2.644531h5.292969v-2.644531h-3.972657c-.730469 0-1.320312-.589844-1.320312-1.324219v-3.96875zm23.816407 0v3.96875c0 .734375-.589844 1.324219-1.324219 1.324219h-3.96875v2.644531h5.292969c1.464843 0 2.644531-1.179688 2.644531-2.644531v-5.292969zm0 0"/><path d="m11.25 8.164062c-.261719-.003906-.5.144532-.617188.378907l-2.648437 5.292969c-.105469.210937-.09375.464843.03125.667968.125.199219.347656.324219.585937.324219h5.289063c.238281 0 .460937-.125.585937-.324219.125-.203125.136719-.457031.027344-.667968l-2.644531-5.292969c-.117187-.230469-.351563-.378907-.609375-.378907zm-.003906 2.21875 1.535156 3.074219h-3.070312zm0 0" fill-opacity=".392157"/><path d="m20.507812 8.1875c-1.832031 0-3.308593 1.476562-3.308593 3.308594 0 1.832031 1.476562 3.308594 3.308593 3.308594 1.832032 0 3.308594-1.476563 3.308594-3.308594 0-1.832032-1.476562-3.308594-3.308594-3.308594zm0 1.324219c1.097657 0 1.984376.882812 1.984376 1.984375 0 1.097656-.886719 1.984375-1.984376 1.984375-1.101562 0-1.984374-.886719-1.984374-1.984375 0-1.101563.882812-1.984375 1.984374-1.984375zm0 0"/><path d="m17.859375 16.128906c-.363281 0-.660156.296875-.660156.664063v6.609375c0 .367187.296875.664062.660156.664062h5.292969c.367187 0 .664062-.296875.664062-.664062v-6.609375c0-.367188-.296875-.664063-.664062-.664063zm1.058594 1.324219h3.175781c.222656 0 .398438.175781.398438.398437v4.492188c0 .222656-.175782.398438-.398438.398438h-3.175781c-.21875 0-.394531-.175782-.394531-.398438v-4.492188c0-.222656.175781-.398437.394531-.398437zm0 0" fill-opacity=".392157"/></g></svg>

<?xml version="1.0" encoding="UTF-8"?>
<svg xmlns="http://www.w3.org/2000/svg" xmlns:xlink="http://www.w3.org/1999/xlink" width="32px" height="32px" viewBox="0 0 32 32" version="1.1">
<g id="surface1">
<path style=" stroke:none;fill-rule:nonzero;fill:rgb(25.882354%,25.882354%,25.882354%);fill-opacity:1;" d="M 8.601562 17.449219 C 8.234375 17.449219 7.9375 17.746094 7.9375 18.109375 L 7.9375 23.402344 C 7.9375 23.769531 8.234375 24.066406 8.601562 24.066406 L 13.890625 24.066406 C 14.257812 24.066406 14.554688 23.769531 14.554688 23.402344 L 14.554688 18.109375 C 14.554688 17.746094 14.257812 17.449219 13.890625 17.449219 Z M 9.660156 18.773438 L 12.832031 18.773438 C 13.054688 18.773438 13.230469 18.949219 13.230469 19.167969 L 13.230469 22.34375 C 13.230469 22.566406 13.054688 22.742188 12.832031 22.742188 L 9.660156 22.742188 C 9.4375 22.742188 9.261719 22.566406 9.261719 22.34375 L 9.261719 19.167969 C 9.261719 18.949219 9.4375 18.773438 9.660156 18.773438 Z M 9.660156 18.773438 "/>
<path style=" stroke:none;fill-rule:nonzero;fill:rgb(25.882354%,25.882354%,25.882354%);fill-opacity:1;" d="M 5.292969 2.894531 C 3.828125 2.894531 2.644531 4.078125 2.644531 5.542969 L 2.644531 10.835938 L 5.292969 10.835938 L 5.292969 6.867188 C 5.292969 6.132812 5.882812 5.542969 6.613281 5.542969 L 10.585938 5.542969 L 10.585938 2.894531 Z M 21.167969 2.894531 L 21.167969 5.542969 L 25.136719 5.542969 C 25.871094 5.542969 26.460938 6.132812 26.460938 6.867188 L 26.460938 10.835938 L 29.105469 10.835938 L 29.105469 5.542969 C 29.105469 4.078125 27.925781 2.894531 26.460938 2.894531 Z M 2.644531 21.417969 L 2.644531 26.710938 C 2.644531 28.175781 3.828125 29.355469 5.292969 29.355469 L 10.585938 29.355469 L 10.585938 26.710938 L 6.613281 26.710938 C 5.882812 26.710938 5.292969 26.121094 5.292969 25.386719 L 5.292969 21.417969 Z M 26.460938 21.417969 L 26.460938 25.386719 C 26.460938 26.121094 25.871094 26.710938 25.136719 26.710938 L 21.167969 26.710938 L 21.167969 29.355469 L 26.460938 29.355469 C 27.925781 29.355469 29.105469 28.175781 29.105469 26.710938 L 29.105469 21.417969 Z M 26.460938 21.417969 "/>
<path style=" stroke:none;fill-rule:nonzero;fill:rgb(25.882354%,25.882354%,25.882354%);fill-opacity:0.392157;" d="M 11.25 8.164062 C 10.988281 8.160156 10.75 8.308594 10.632812 8.542969 L 7.984375 13.835938 C 7.878906 14.046875 7.890625 14.300781 8.015625 14.503906 C 8.140625 14.703125 8.363281 14.828125 8.601562 14.828125 L 13.890625 14.828125 C 14.128906 14.828125 14.351562 14.703125 14.476562 14.503906 C 14.601562 14.300781 14.613281 14.046875 14.503906 13.835938 L 11.859375 8.542969 C 11.742188 8.3125 11.507812 8.164062 11.25 8.164062 Z M 11.246094 10.382812 L 12.78125 13.457031 L 9.710938 13.457031 Z M 11.246094 10.382812 "/>
<path style=" stroke:none;fill-rule:nonzero;fill:rgb(25.882354%,25.882354%,25.882354%);fill-opacity:1;" d="M 20.507812 8.1875 C 18.675781 8.1875 17.199219 9.664062 17.199219 11.496094 C 17.199219 13.328125 18.675781 14.804688 20.507812 14.804688 C 22.339844 14.804688 23.816406 13.328125 23.816406 11.496094 C 23.816406 9.664062 22.339844 8.1875 20.507812 8.1875 Z M 20.507812 9.511719 C 21.605469 9.511719 22.492188 10.394531 22.492188 11.496094 C 22.492188 12.59375 21.605469 13.480469 20.507812 13.480469 C 19.40625 13.480469 18.523438 12.59375 18.523438 11.496094 C 18.523438 10.394531 19.40625 9.511719 20.507812 9.511719 Z M 20.507812 9.511719 "/>
<path style=" stroke:none;fill-rule:nonzero;fill:rgb(25.882354%,25.882354%,25.882354%);fill-opacity:0.392157;" d="M 17.859375 16.128906 C 17.496094 16.128906 17.199219 16.425781 17.199219 16.792969 L 17.199219 23.402344 C 17.199219 23.769531 17.496094 24.066406 17.859375 24.066406 L 23.152344 24.066406 C 23.519531 24.066406 23.816406 23.769531 23.816406 23.402344 L 23.816406 16.792969 C 23.816406 16.425781 23.519531 16.128906 23.152344 16.128906 Z M 18.917969 17.453125 L 22.09375 17.453125 C 22.316406 17.453125 22.492188 17.628906 22.492188 17.851562 L 22.492188 22.34375 C 22.492188 22.566406 22.316406 22.742188 22.09375 22.742188 L 18.917969 22.742188 C 18.699219 22.742188 18.523438 22.566406 18.523438 22.34375 L 18.523438 17.851562 C 18.523438 17.628906 18.699219 17.453125 18.917969 17.453125 Z M 18.917969 17.453125 "/>
</g>
</svg>
